polaris-icons/icons/new-icons/CircleLeftMajor.svg

<svg width="20" height="20" viewBox="0 0 20 20" fill="none" xmlns="http://www.w3.org/2000/svg">
<path fill-rule="evenodd" clip-rule="evenodd" d="M15.5 10C15.5 13.0376 13.0376 15.5 10 15.5C6.96243 15.5 4.5 13.0376 4.5 10C4.5 6.96243 6.96243 4.5 10 4.5C13.0376 4.5 15.5 6.96243 15.5 10ZM17 10C17 13.866 13.866 17 10 17C6.13401 17 3 13.866 3 10C3 6.13401 6.13401 3 10 3C13.866 3 17 6.13401 17 10ZM13.5 10.75C13.9142 10.75 14.25 10.4142 14.25 10C14.25 9.58579 13.9142 9.25 13.5 9.25L8.31066 9.25L9.53033 8.03033C9.82322 7.73744 9.82322 7.26256 9.53033 6.96967C9.23744 6.67678 8.76256 6.67678 8.46967 6.96967L5.96967 9.46967C5.67678 9.76256 5.67678 10.2374 5.96967 10.5303L8.46967 13.0303C8.76256 13.3232 9.23744 13.3232 9.53033 13.0303C9.82322 12.7374 9.82322 12.2626 9.53033 11.9697L8.31066 10.75L13.5 10.75Z" fill="#4A4A4A"/>
</svg>

<svg viewBox="0 0 20 20" xmlns="http://www.w3.org/2000/svg"><path fill-rule="evenodd" d="M15.5 10a5.5 5.5 0 1 1-11 0 5.5 5.5 0 0 1 11 0Zm1.5 0a7 7 0 1 1-14 0 7 7 0 0 1 14 0Zm-3.5.75a.75.75 0 0 0 0-1.5h-5.19l1.22-1.22a.75.75 0 0 0-1.06-1.06l-2.5 2.5a.75.75 0 0 0 0 1.06l2.5 2.5a.75.75 0 0 0 1.06-1.06l-1.22-1.22h5.19Z" fill="#5C5F62"/></svg>
